X:1
T:Recuerdos de Calahuayo
R:waynu
O:Peru
Z:id:hn-waynu-1
M:3/4
L:1/8
Q:1/4=90
K:Em
[M:3/4]"Em"B/ee/ ee/dd/c | "G"B/dd/ dd/cc/B |[M:2/4] "Am"AB/cc/e | "Em"B4 :|
|:[M:3/4] "Am"A/cc/ cc/BB/A | "G"G/BB/ "B"BB/AA/F | "Em"EE/F/ "G"GG/"B"GA/F |
[1 [M:2/4]"Em"E4 :|2 [M:3/4] "Em"E3/"G"BBB/ "B"AF | "Em"EE/F/ "G"GG/"B"GA/F |
"Em"E3/"G"BBB/ "B"AF | "Em"EE/F/ "G"GG/"B"GA/F |[M:2/4] "Em"E4 ||
|:[M:3/4] "C"gf/ee/g "D"d/e/d |[M:2/4] "G"B4 :|
|:[M:2/4] "B"BB/AG/F | "Em"G/AB/ "G"d2 | "B"BB/AG/F |[M:3/4] "B"G/AF/ "Em"E4 :|

